X:73
T:Ryan and Blair's Wedding
R:jig
C:Paul S. Cranford
O:Cape Breton Island
S:http://www.cranfordpub.com
D:currently unrecorded
B:currently unpublished in book form
Z:psc
H:                                                        copyrights Cranford Publications, SOCAN
L:1/8
Q:300
M:6/8
K:G
z|DEF GAB|cBG A2 B|cBA dAd|cDG F2 E|
DEF GAB|cDB A2 g|fga gdB|cAF G2:|
|:g|fdd ed^c|dAG F2 g|fdf ed^c|dAF G2 g|
fdd ed^c|dAG FGA|fga gdB|cAF G2:|
